X:80
M:2/4
L:1/8
K:D
| DF/E/ DF | AF EF | GB/A/ GE | c/B/A GE | 
| d2 cB | BA FA | EF GE | BA FA | 
d2 cB | BA FA | FG GC | ED D2 :|| 

